svg/emoji_u1f351.svg

<?xml version="1.0" encoding="UTF-8" standalone="no"?>
<svg
   xmlns:dc="http://purl.org/dc/elements/1.1/"
   xmlns:cc="http://creativecommons.org/ns#"
   xmlns:rdf="http://www.w3.org/1999/02/22-rdf-syntax-ns#"
   xmlns:svg="http://www.w3.org/2000/svg"
   xmlns="http://www.w3.org/2000/svg"
   xmlns:xlink="http://www.w3.org/1999/xlink"
   xmlns:sodipodi="http://sodipodi.sourceforge.net/DTD/sodipodi-0.dtd"
   xmlns:inkscape="http://www.inkscape.org/namespaces/inkscape"
   width="128"
   height="128"
   style="enable-background:new 0 0 128 128;"
   version="1.1"
   id="svg30"
   sodipodi:docname="emoji_u1f351.svg"
   inkscape:version="0.92+devel unknown">
  <metadata
     id="metadata36">
    <rdf:RDF>
      <cc:Work
         rdf:about="">
        <dc:format>image/svg+xml</dc:format>
        <dc:type
           rdf:resource="http://purl.org/dc/dcmitype/StillImage" />
      </cc:Work>
    </rdf:RDF>
  </metadata>
  <defs
     id="defs34">
    <defs
       id="defs11">
      <path
         inkscape:connector-curvature="0"
         d="m 13.3,77.89 c 4.32,15.44 16.37,27.41 29.68,36.26 4.3,2.87 8.81,5.43 13.55,7.52 4,1.77 8.15,3.21 12.49,4.22 2.69,0.63 5.9,-2.01 8.07,-3.24 3.58,-2.04 7.17,-4.09 10.75,-6.19 20.32,-11.93 39.31,-35.93 31.79,-60.77 -2.45,-8.08 -7.17,-15.25 -13.98,-20.28 -6.76,-5 -14.79,-6.53 -22.97,-6.94 -1.59,0.01 -3.82,0.06 -4.57,1.25 -1.16,1.83 0.73,3.24 1.51,4.68 0.2,0.36 0.55,0.86 0.82,1.38 0.09,0.14 0.2,0.27 0.3,0.41 7.06,10.9 9.27,24.38 6.58,37.04 -0.18,0.84 -1.58,6.17 -3.64,4.91 -0.04,-0.03 -0.09,-0.06 -0.13,-0.1 -0.59,-0.54 -0.31,-1.93 -0.31,-2.61 0,-12 -1.31,-25.04 -8.39,-35.16 -1.93,-2.75 -4.54,-5.46 -7.28,-7.39 -0.68,-0.46 -1.36,-0.91 -2.08,-1.3 -5.8,-3.21 -12.09,-4.03 -18.59,-3.5 -0.51,0.09 -1.02,0.16 -1.53,0.27 -0.38,0.1 -0.76,0.18 -1.15,0.26 -15.67,3.59 -29.44,14.75 -31.6,31.67 -0.69,5.41 -0.79,12.35 0.68,17.61 z"
         id="SVGID_1_" />
    </defs>
    <clipPath
       id="SVGID_2_">
      <use
         height="100%"
         width="100%"
         y="0"
         x="0"
         id="use15"
         xlink:href="#SVGID_1_"
         style="overflow:visible" />
    </clipPath>
  </defs>
  <sodipodi:namedview
     pagecolor="#ffffff"
     bordercolor="#666666"
     inkscape:document-rotation="0"
     borderopacity="1"
     objecttolerance="10"
     gridtolerance="10"
     guidetolerance="10"
     inkscape:pageopacity="0"
     inkscape:pageshadow="2"
     inkscape:window-width="1680"
     inkscape:window-height="986"
     id="namedview32"
     showgrid="false"
     inkscape:zoom="0.96260437"
     inkscape:cx="-254.98719"
     inkscape:cy="-56.096506"
     inkscape:window-x="0"
     inkscape:window-y="27"
     inkscape:window-maximized="1"
     inkscape:current-layer="svg30" />
  <g
     id="g6">
    <path
       d="m 4.16,22.61 c 2.96,5.86 7.38,11.05 12.72,14.74 1.73,1.2 3.58,2.22 5.5,3.08 8.5,-8.64 39.52,-10.49 39.52,-10.49 0,0 -2.02,-5.85 -2.67,-7.16 C 58.46,21.23 57.62,19.88 56.84,18.9 52.16,13.11 44.09,10.04 37.08,8.23 26.6,5.55 15.17,5.82 4.51,7.16 3.68,7.27 2.83,7.23 1.98,7.32 -2.38,7.85 3.3,20.91 4.16,22.61 Z"
       style="fill:#bdcf46"
       id="path2"
       inkscape:connector-curvature="0" />
    <path
       d="m 105.65,35.44 c 1.29,0.95 2.48,2 3.62,3.1 0.63,-0.38 1.25,-0.77 1.86,-1.19 5.35,-3.69 9.76,-8.88 12.72,-14.74 0.85,-1.69 6.54,-14.76 2.17,-15.29 -0.84,-0.1 -1.69,-0.05 -2.53,-0.16 -10.66,-1.35 -22.08,-1.61 -32.56,1.08 -7,1.8 -15.08,4.88 -19.76,10.67 -1.06,1.31 -2.15,3.32 -3.14,5.54 -0.67,1.5 -1.56,5.87 -1.56,5.87 0,0 29.19,-2.27 39.18,5.12 z"
       style="fill:#bdcf46"
       id="path4"
       inkscape:connector-curvature="0" />
  </g>
  <path
     d="m 70.24,28.45 c 0,0 -3.14,0.38 -5.44,0.02 -7.08,-1.1 -14.51,-1.21 -18.57,-0.25 L 75.67,92.37 96.59,85.62 100.54,54.99 83.23,28.52 c 0,0 -5.16,-0.46 -12.99,-0.07 z"
     style="fill:#bb5644;opacity:1;vector-effect:none;fill-opacity:1;stroke-width:1;stroke-linecap:butt;stroke-linejoin:miter;stroke-miterlimit:4;stroke-dasharray:none;stroke-dashoffset:0;stroke-opacity:1"
     id="path8"
     inkscape:connector-curvature="0" />
  <use
     height="100%"
     width="100%"
     y="0"
     x="0"
     id="use13"
     xlink:href="#SVGID_1_"
     style="overflow:visible;fill:#e97e4d;fill-opacity:1" />
  <path
     style="fill:#bb5644;opacity:1;vector-effect:none;fill-opacity:1;stroke-width:1;stroke-linecap:butt;stroke-linejoin:miter;stroke-miterlimit:4;stroke-dasharray:none;stroke-dashoffset:0;stroke-opacity:1"
     clip-path="url(#SVGID_2_)"
     d="M 87.310547 20.539062 C 78.350547 20.319063 72.669922 24.039062 72.669922 24.039062 L 70.916016 31.564453 C 65.429822 26.506924 55.597278 22.569273 37.929688 25.119141 C 7.3096875 29.539141 1.0004688 70.130547 4.7304688 82.810547 C 8.4404687 95.480547 25.849609 99.710938 25.849609 99.710938 C 11.239609 80.940938 18.759219 52.929922 33.949219 43.169922 C 41.519219 38.299922 53.070312 34.199609 64.570312 36.849609 C 74.510312 39.139609 77.820312 45.369141 77.820312 45.369141 C 77.820312 45.369141 77.639748 40.789116 74.544922 35.902344 L 83.660156 41.449219 C 83.660156 41.449219 81.400391 35.940625 86.900391 34.140625 C 93.660391 31.920625 105.65938 34.410156 111.10938 40.410156 L 109.81055 32.550781 C 109.81055 32.550781 96.270547 20.759062 87.310547 20.539062 z "
     id="path18" />
  <path
     inkscape:connector-curvature="0"
     id="path26"
     style="fill:#ffffff"
     d="m 85.81,108.94 c 2.87,-0.99 6.94,-4.23 8.9,-5.89 4.14,-3.51 7.85,-7.88 9.72,-13.05 1.35,-3.76 -0.71,-5.29 -1.35,-5.54 -3.97,-1.51 -7.66,3.02 -9.85,5.68 -2.01,2.43 -3.73,5.04 -5.46,7.66 -1.04,1.57 -2.12,3.13 -3.04,4.79 -0.75,1.39 -2.08,3.63 -1.6,5.27 0.36,1.25 1.55,1.47 2.68,1.08 z" />
</svg>

<svg xmlns="http://www.w3.org/2000/svg" xmlns:xlink="http://www.w3.org/1999/xlink" width="128" height="128"><defs><path d="M13.3 77.89c4.32 15.44 16.37 27.41 29.68 36.26 4.3 2.87 8.81 5.43 13.55 7.52 4 1.77 8.15 3.21 12.49 4.22 2.69.63 5.9-2.01 8.07-3.24 3.58-2.04 7.17-4.09 10.75-6.19 20.32-11.93 39.31-35.93 31.79-60.77-2.45-8.08-7.17-15.25-13.98-20.28-6.76-5-14.79-6.53-22.97-6.94-1.59.01-3.82.06-4.57 1.25-1.16 1.83.73 3.24 1.51 4.68.2.36.55.86.82 1.38.09.14.2.27.3.41 7.06 10.9 9.27 24.38 6.58 37.04-.18.84-1.58 6.17-3.64 4.91-.04-.03-.09-.06-.13-.1-.59-.54-.31-1.93-.31-2.61 0-12-1.31-25.04-8.39-35.16-1.93-2.75-4.54-5.46-7.28-7.39-.68-.46-1.36-.91-2.08-1.3-5.8-3.21-12.09-4.03-18.59-3.5-.51.09-1.02.16-1.53.27-.38.1-.76.18-1.15.26-15.67 3.59-29.44 14.75-31.6 31.67-.69 5.41-.79 12.35.68 17.61z" id="a"/><clipPath id="b"><use height="100%" width="100%" xlink:href="#a" overflow="visible"/></clipPath></defs><g fill="#bdcf46"><path d="M4.16 22.61c2.96 5.86 7.38 11.05 12.72 14.74a34.08 34.08 0 0 0 5.5 3.08c8.5-8.64 39.52-10.49 39.52-10.49s-2.02-5.85-2.67-7.16c-.77-1.55-1.61-2.9-2.39-3.88-4.68-5.79-12.75-8.86-19.76-10.67C26.6 5.55 15.17 5.82 4.51 7.16c-.83.11-1.68.07-2.53.16-4.36.53 1.32 13.59 2.18 15.29zM105.65 35.44c1.29.95 2.48 2 3.62 3.1.63-.38 1.25-.77 1.86-1.19 5.35-3.69 9.76-8.88 12.72-14.74.85-1.69 6.54-14.76 2.17-15.29-.84-.1-1.69-.05-2.53-.16-10.66-1.35-22.08-1.61-32.56 1.08-7 1.8-15.08 4.88-19.76 10.67-1.06 1.31-2.15 3.32-3.14 5.54-.67 1.5-1.56 5.87-1.56 5.87s29.19-2.27 39.18 5.12z"/></g><path d="M70.24 28.45s-3.14.38-5.44.02c-7.08-1.1-14.51-1.21-18.57-.25l29.44 64.15 20.92-6.75 3.95-30.63-17.31-26.47s-5.16-.46-12.99-.07z" fill="#bb5644"/><use height="100%" width="100%" xlink:href="#a" overflow="visible" fill="#e97e4d"/><path clip-path="url(#b)" d="M87.31 20.54c-8.96-.22-14.64 3.5-14.64 3.5l-1.754 7.524C65.43 26.507 55.597 22.57 37.93 25.12 7.31 29.54 1 70.131 4.73 82.811c3.71 12.67 21.12 16.9 21.12 16.9-14.61-18.77-7.09-46.781 8.1-56.541 7.57-4.87 19.12-8.97 30.62-6.32 9.94 2.29 13.25 8.52 13.25 8.52s-.18-4.58-3.275-9.468l9.115 5.547s-2.26-5.508 3.24-7.308c6.76-2.22 18.76.27 24.21 6.27l-1.3-7.86s-13.54-11.792-22.5-12.012z" fill="#bb5644"/><path d="M85.81 108.94c2.87-.99 6.94-4.23 8.9-5.89 4.14-3.51 7.85-7.88 9.72-13.05 1.35-3.76-.71-5.29-1.35-5.54-3.97-1.51-7.66 3.02-9.85 5.68-2.01 2.43-3.73 5.04-5.46 7.66-1.04 1.57-2.12 3.13-3.04 4.79-.75 1.39-2.08 3.63-1.6 5.27.36 1.25 1.55 1.47 2.68 1.08z" fill="#fff"/></svg>
